X: 35810
T: Saltarello Bolognese
R: jig
M: 6/8
K: Cmajor
c cBc|dcB AGF|.E2G GFE|DEF GAB|.d2c cBc|
dcB AGF|.E2G GFE|DEF GAB|c3 z3|
.E2E EFG|.A2A A3|.B2B BcB|.A2G G3|
.E2E EFG|.A2A A3|.B2B BAB|c3 CDE|
K:F
|:.F2F FEF|A2F FEF|.G2G GFG|A2F CDE|
.F2F FEF|A2F FEF|.G2G BAG|1 F2z CDE:|2 F2||

